logos/neuromatch-academy.svg

<?xml version="1.0" encoding="UTF-8"?>
<!DOCTYPE svg PUBLIC "-//W3C//DTD SVG 1.1//EN" "http://www.w3.org/Graphics/SVG/1.1/DTD/svg11.dtd">
<svg xmlns="http://www.w3.org/2000/svg" version="1.1" width="200px" height="200px" style="shape-rendering:geometricPrecision; text-rendering:geometricPrecision; image-rendering:optimizeQuality; fill-rule:evenodd; clip-rule:evenodd" xmlns:xlink="http://www.w3.org/1999/xlink">
<g><path style="opacity:1" fill="#f17778" d="M 89.5,1.5 C 136.168,-0.294141 169.668,19.7059 190,61.5C 206.278,109.024 195.112,148.524 156.5,180C 117.552,204.91 78.8856,204.576 40.5,179C 2.43241,146.569 -8.06759,106.735 9,59.5C 25.6504,26.014 52.4837,6.6807 89.5,1.5 Z"/></g>
<g><path style="opacity:1" fill="#0c0605" d="M 147.5,84.5 C 148.774,86.9925 149.44,89.6592 149.5,92.5C 150.15,94.4352 150.483,96.4352 150.5,98.5C 148.833,98.5 147.167,98.5 145.5,98.5C 145.795,96.2646 145.461,94.2646 144.5,92.5C 144.59,89.8478 143.924,87.5145 142.5,85.5C 140.168,79.9969 136.834,75.1635 132.5,71C 131.167,70.3333 129.833,70.3333 128.5,71C 124.987,75.574 124.654,80.4074 127.5,85.5C 127.563,87.5139 126.897,89.1806 125.5,90.5C 120.181,92.043 116.848,90.043 115.5,84.5C 117.154,81.6847 118.987,79.018 121,76.5C 121.551,68.2826 118.051,66.2826 110.5,70.5C 107.198,77.3728 103.032,78.0394 98,72.5C 96.8837,67.6055 98.8837,64.9388 104,64.5C 105.711,64.4393 107.044,65.1059 108,66.5C 117.806,64.1261 118.973,59.6261 111.5,53C 104.701,53.8581 101.534,51.0248 102,44.5C 105.272,40.9042 108.938,40.5708 113,43.5C 113.685,49.8549 117.185,53.0215 123.5,53C 125.077,50.436 126.077,47.6026 126.5,44.5C 121.771,38.748 122.937,34.748 130,32.5C 135.023,33.5422 136.69,36.5422 135,41.5C 130.529,44.8781 129.362,49.2114 131.5,54.5C 137.401,56.2579 141.735,54.4246 144.5,49C 153.215,47.5439 155.549,50.7106 151.5,58.5C 147.86,59.3372 144.194,59.5038 140.5,59C 135.885,60.1235 134.385,62.9569 136,67.5C 141.259,72.2491 145.093,77.9158 147.5,84.5 Z"/></g>
<g><path style="opacity:1" fill="#0c0605" d="M 55.5,84.5 C 54.0762,86.5145 53.4095,88.8478 53.5,91.5C 52.353,95.6463 52.1864,99.9796 53,104.5C 53.1558,107.191 53.9891,109.524 55.5,111.5C 55.5,114.167 55.5,116.833 55.5,119.5C 56.5,119.5 57.5,119.5 58.5,119.5C 60.2433,122.75 62.5766,125.584 65.5,128C 70.6613,129.178 72.9947,127.012 72.5,121.5C 72.0394,118.784 71.3727,116.118 70.5,113.5C 71.0924,111.577 72.0924,109.911 73.5,108.5C 82.1015,108.706 84.1015,112.373 79.5,119.5C 76.6967,122.204 75.8634,125.537 77,129.5C 78.3129,130.573 79.8129,131.24 81.5,131.5C 83.7617,130.533 86.095,129.866 88.5,129.5C 89.293,124.224 92.293,122.391 97.5,124C 101.644,127.979 101.31,131.645 96.5,135C 94.0617,135.682 91.8951,135.182 90,133.5C 80.294,135.496 79.1273,139.663 86.5,146C 93.7962,145.295 96.9629,148.462 96,155.5C 93.3214,158.835 90.1547,159.335 86.5,157C 85.1919,154.645 84.1919,152.145 83.5,149.5C 81.72,147.556 79.5533,146.223 77,145.5C 75.395,146.101 74.0616,147.101 73,148.5C 72.398,153.37 72.7313,158.036 74,162.5C 71.3526,166.763 68.0193,167.43 64,164.5C 61.3598,160.017 62.3598,156.684 67,154.5C 69.5442,143.87 66.0442,141.036 56.5,146C 55.1511,150.51 52.1511,152.177 47.5,151C 42.9807,146.104 43.6474,142.271 49.5,139.5C 51.2743,139.887 52.941,140.553 54.5,141.5C 56.6666,140.208 58.9999,139.375 61.5,139C 62.5728,137.687 63.2395,136.187 63.5,134.5C 60.8907,130.716 58.0574,127.049 55,123.5C 49.7357,114.204 47.2357,104.204 47.5,93.5C 48.475,90.9333 49.1417,88.2666 49.5,85.5C 51.8666,78.436 55.5333,72.1026 60.5,66.5C 62.9837,64.517 65.3171,62.3504 67.5,60C 74.1784,57.0866 80.3451,53.5866 86,49.5C 92.7968,51.2438 93.9635,54.7438 89.5,60C 85.8235,60.1078 82.1568,60.1078 78.5,60C 66.8415,64.5297 59.1749,72.6963 55.5,84.5 Z"/></g>
<g><path style="opacity:1" fill="#fefdfd" d="M 49.5,85.5 C 49.1417,88.2666 48.475,90.9333 47.5,93.5C 46.0337,94.347 45.2004,95.6803 45,97.5C 44.5003,104.826 44.3337,112.159 44.5,119.5C 41.1667,119.5 37.8333,119.5 34.5,119.5C 34.5,108.167 34.5,96.8333 34.5,85.5C 37.5,85.5 40.5,85.5 43.5,85.5C 43.3118,87.1033 43.8118,88.4366 45,89.5C 46.3712,87.9586 47.8712,86.6253 49.5,85.5 Z"/></g>
<g><path style="opacity:1" fill="#fcf9f9" d="M 55.5,84.5 C 60.8526,84.6809 64.3526,87.3476 66,92.5C 66.4998,101.494 66.6664,110.494 66.5,119.5C 63.8333,119.5 61.1667,119.5 58.5,119.5C 57.5,119.5 56.5,119.5 55.5,119.5C 55.5,116.833 55.5,114.167 55.5,111.5C 56.0397,104.591 55.3731,97.9245 53.5,91.5C 53.4095,88.8478 54.0762,86.5145 55.5,84.5 Z"/></g>
<g><path style="opacity:1" fill="#fdfbfb" d="M 115.5,84.5 C 116.848,90.043 120.181,92.043 125.5,90.5C 126.494,99.9856 126.827,109.652 126.5,119.5C 123.167,119.5 119.833,119.5 116.5,119.5C 116.666,111.826 116.5,104.159 116,96.5C 113.177,91.6046 109.843,91.2713 106,95.5C 105.5,103.493 105.334,111.493 105.5,119.5C 101.833,119.5 98.1667,119.5 94.5,119.5C 94.6664,111.493 94.4997,103.493 94,95.5C 90.3032,91.4178 86.9699,91.7512 84,96.5C 83.5003,104.159 83.3336,111.826 83.5,119.5C 82.1667,119.5 80.8333,119.5 79.5,119.5C 84.1015,112.373 82.1015,108.706 73.5,108.5C 73.5,100.833 73.5,93.1667 73.5,85.5C 76.5184,85.3354 79.5184,85.502 82.5,86C 83.1905,87.0674 83.6905,88.2341 84,89.5C 87.4384,84.9191 91.9384,83.4191 97.5,85C 100.209,85.5408 102.209,87.0408 103.5,89.5C 105.968,88.1971 108.301,86.6971 110.5,85C 112.134,84.5065 113.801,84.3398 115.5,84.5 Z"/></g>
<g><path style="opacity:1" fill="#fdf9f9" d="M 147.5,84.5 C 155.309,83.4843 160.809,86.4843 164,93.5C 164.196,101.882 164.696,110.215 165.5,118.5C 162.232,119.487 158.898,119.82 155.5,119.5C 155.352,115.445 154.352,114.945 152.5,118C 150.1,118.744 147.767,119.577 145.5,120.5C 143.833,120.5 142.167,120.5 140.5,120.5C 130.207,116.353 128.874,110.187 136.5,102C 139.598,100.772 142.598,99.6057 145.5,98.5C 147.167,98.5 148.833,98.5 150.5,98.5C 151.5,98.5 152.5,98.5 153.5,98.5C 154.401,94.7593 153.068,92.7593 149.5,92.5C 149.44,89.6592 148.774,86.9925 147.5,84.5 Z"/></g>
<g><path style="opacity:1" fill="#f7f2f1" d="M 142.5,85.5 C 143.924,87.5145 144.59,89.8478 144.5,92.5C 143.855,93.8118 142.855,94.8118 141.5,95.5C 138.683,94.9049 136.35,93.5716 134.5,91.5C 136.473,88.5197 139.14,86.5197 142.5,85.5 Z"/></g>
<g><path style="opacity:1" fill="#ea7576" d="M 149.5,92.5 C 153.068,92.7593 154.401,94.7593 153.5,98.5C 152.5,98.5 151.5,98.5 150.5,98.5C 150.483,96.4352 150.15,94.4352 149.5,92.5 Z"/></g>
<g><path style="opacity:1" fill="#d86d6d" d="M 53.5,91.5 C 55.3731,97.9245 56.0397,104.591 55.5,111.5C 53.9891,109.524 53.1558,107.191 53,104.5C 52.1864,99.9796 52.353,95.6463 53.5,91.5 Z"/></g>
<g><path style="opacity:1" fill="#191515" d="M 148.5,105.5 C 149.468,107.607 149.802,109.941 149.5,112.5C 147.833,113.833 146.167,113.833 144.5,112.5C 144.325,110.379 144.659,108.379 145.5,106.5C 146.209,105.596 147.209,105.263 148.5,105.5 Z"/></g>
<g><path style="opacity:1" fill="#e67e7e" d="M 148.5,105.5 C 150.265,104.539 152.265,104.205 154.5,104.5C 154.824,108.537 153.158,111.203 149.5,112.5C 149.802,109.941 149.468,107.607 148.5,105.5 Z"/></g>
<g><path style="opacity:1" fill="#e17575" d="M 145.5,106.5 C 144.659,108.379 144.325,110.379 144.5,112.5C 142.623,111.341 142.123,109.674 143,107.5C 143.671,106.748 144.504,106.414 145.5,106.5 Z"/></g>
<g><path style="opacity:1" fill="#0d0606" d="M 140.5,120.5 C 142.167,120.5 143.833,120.5 145.5,120.5C 140.133,132.702 131.133,140.869 118.5,145C 115.586,149.894 111.753,150.727 107,147.5C 106.215,139.285 109.548,136.952 117,140.5C 127.454,136.877 135.287,130.21 140.5,120.5 Z"/></g>
</svg>

<svg xmlns="http://www.w3.org/2000/svg" width="200" height="200" style="shape-rendering:geometricPrecision;text-rendering:geometricPrecision;image-rendering:optimizeQuality;fill-rule:evenodd;clip-rule:evenodd"><path style="opacity:1" fill="#f17778" d="M89.5 1.5c46.668-1.794 80.168 18.206 100.5 60 16.278 47.524 5.112 87.024-33.5 118.5-38.948 24.91-77.614 24.576-116-1C2.432 146.569-8.068 106.735 9 59.5c16.65-33.486 43.484-52.82 80.5-58z"/><path style="opacity:1" fill="#0c0605" d="M147.5 84.5c1.274 2.493 1.94 5.16 2 8 .65 1.935.983 3.935 1 6h-5c.295-2.235-.039-4.235-1-6 .09-2.652-.576-4.986-2-7-2.332-5.503-5.666-10.337-10-14.5-1.333-.667-2.667-.667-4 0-3.513 4.574-3.846 9.407-1 14.5.063 2.014-.603 3.68-2 5-5.319 1.543-8.652-.457-10-6a67.757 67.757 0 0 1 5.5-8c.551-8.217-2.949-10.217-10.5-6-3.302 6.873-7.468 7.54-12.5 2-1.116-4.894.884-7.561 6-8 1.711-.06 3.044.606 4 2 9.806-2.374 10.973-6.874 3.5-13.5-6.799.858-9.966-1.975-9.5-8.5 3.272-3.596 6.938-3.93 11-1 .685 6.355 4.185 9.522 10.5 9.5 1.577-2.564 2.577-5.397 3-8.5-4.729-5.752-3.563-9.752 3.5-12 5.023 1.042 6.69 4.042 5 9-4.471 3.378-5.638 7.711-3.5 13 5.901 1.758 10.235-.075 13-5.5 8.715-1.456 11.049 1.71 7 9.5a30.367 30.367 0 0 1-11 .5c-4.615 1.123-6.115 3.957-4.5 8.5 5.259 4.75 9.093 10.416 11.5 17zM55.5 84.5c-1.424 2.014-2.09 4.348-2 7-1.147 4.146-1.314 8.48-.5 13 .156 2.691.99 5.024 2.5 7v8h3c1.743 3.25 4.077 6.084 7 8.5 5.161 1.178 7.495-.988 7-6.5a53.594 53.594 0 0 0-2-8 11.956 11.956 0 0 1 3-5c8.602.206 10.602 3.873 6 11-2.803 2.704-3.637 6.037-2.5 10a9.2 9.2 0 0 0 4.5 2 28.737 28.737 0 0 1 7-2c.793-5.276 3.793-7.109 9-5.5 4.144 3.979 3.81 7.645-1 11-2.438.682-4.605.182-6.5-1.5-9.706 1.996-10.873 6.163-3.5 12.5 7.296-.705 10.463 2.462 9.5 9.5-2.679 3.335-5.845 3.835-9.5 1.5a32.12 32.12 0 0 1-3-7.5c-1.78-1.944-3.947-3.277-6.5-4-1.605.601-2.938 1.601-4 3-.602 4.87-.269 9.536 1 14-2.647 4.263-5.98 4.93-10 2-2.64-4.483-1.64-7.816 3-10 2.544-10.63-.956-13.464-10.5-8.5-1.349 4.51-4.349 6.177-9 5-4.52-4.896-3.853-8.729 2-11.5a16.226 16.226 0 0 1 5 2 19.057 19.057 0 0 1 7-2.5 9.208 9.208 0 0 0 2-4.5 129.372 129.372 0 0 0-8.5-11c-5.264-9.296-7.764-19.296-7.5-30a35.167 35.167 0 0 0 2-8c2.367-7.064 6.033-13.397 11-19a64.271 64.271 0 0 0 7-6.5c6.678-2.913 12.845-6.413 18.5-10.5 6.797 1.744 7.963 5.244 3.5 10.5-3.677.108-7.343.108-11 0-11.659 4.53-19.325 12.696-23 24.5z"/><path style="opacity:1" fill="#fefdfd" d="M49.5 85.5a35.167 35.167 0 0 1-2 8c-1.466.847-2.3 2.18-2.5 4a242.43 242.43 0 0 0-.5 22h-10v-34h9c-.188 1.603.312 2.937 1.5 4a25.15 25.15 0 0 1 4.5-4z"/><path style="opacity:1" fill="#fcf9f9" d="M55.5 84.5c5.353.18 8.853 2.848 10.5 8 .5 8.994.666 17.994.5 27h-11v-8c.54-6.909-.127-13.576-2-20-.09-2.652.576-4.986 2-7z"/><path style="opacity:1" fill="#fdfbfb" d="M115.5 84.5c1.348 5.543 4.681 7.543 10 6 .994 9.486 1.327 19.152 1 29h-10c.166-7.674 0-15.341-.5-23-2.823-4.895-6.157-5.229-10-1-.5 7.993-.666 15.993-.5 24h-11c.166-8.007 0-16.007-.5-24-3.697-4.082-7.03-3.749-10 1-.5 7.659-.666 15.326-.5 23h-4c4.602-7.127 2.602-10.794-6-11v-23a40.936 40.936 0 0 1 9 .5 11.362 11.362 0 0 1 1.5 3.5c3.438-4.58 7.938-6.08 13.5-4.5 2.709.54 4.709 2.04 6 4.5a48.476 48.476 0 0 0 7-4.5 12.935 12.935 0 0 1 5-.5z"/><path style="opacity:1" fill="#fdf9f9" d="M147.5 84.5c7.809-1.016 13.309 1.984 16.5 9 .196 8.382.696 16.715 1.5 25a25.879 25.879 0 0 1-10 1c-.148-4.055-1.148-4.555-3-1.5a86.376 86.376 0 0 0-7 2.5h-5c-10.293-4.147-11.626-10.313-4-18.5a723.582 723.582 0 0 1 9-3.5h8c.901-3.74-.432-5.74-4-6-.06-2.84-.726-5.507-2-8z"/><path style="opacity:1" fill="#f7f2f1" d="M142.5 85.5c1.424 2.014 2.09 4.348 2 7-.645 1.312-1.645 2.312-3 3-2.817-.595-5.15-1.928-7-4 1.973-2.98 4.64-4.98 8-6z"/><path style="opacity:1" fill="#ea7576" d="M149.5 92.5c3.568.26 4.901 2.26 4 6h-3a19.222 19.222 0 0 0-1-6z"/><path style="opacity:1" fill="#d86d6d" d="M53.5 91.5c1.873 6.424 2.54 13.091 2 20-1.51-1.976-2.344-4.309-2.5-7-.814-4.52-.647-8.854.5-13z"/><path style="opacity:1" fill="#191515" d="M148.5 105.5c.968 2.107 1.302 4.441 1 7-1.667 1.333-3.333 1.333-5 0-.175-2.121.159-4.121 1-6 .709-.904 1.709-1.237 3-1z"/><path style="opacity:1" fill="#e67e7e" d="M148.5 105.5c1.765-.961 3.765-1.295 6-1 .324 4.037-1.342 6.703-5 8 .302-2.559-.032-4.893-1-7z"/><path style="opacity:1" fill="#e17575" d="M145.5 106.5c-.841 1.879-1.175 3.879-1 6-1.877-1.159-2.377-2.826-1.5-5 .671-.752 1.504-1.086 2.5-1z"/><path style="opacity:1" fill="#0d0606" d="M140.5 120.5h5c-5.367 12.202-14.367 20.369-27 24.5-2.914 4.894-6.747 5.727-11.5 2.5-.785-8.215 2.548-10.548 10-7 10.454-3.623 18.287-10.29 23.5-20z"/></svg>
